ATB_project/img/region/map/map2.svg

<svg width="557" height="712" viewBox="0 0 557 712" fill="none" xmlns="http://www.w3.org/2000/svg"><g filter="url(#filter0_d_1210_839)"><path d="M17.758 210.229v-10.307h-8.52L0 177.903l17.406-7.093s4.25 10.289 6.394 10.289c2.142 0 33.74-10.289 33.74-10.289l7.466-22.721h18.477l3.197-27.707 9.59-7.094-1.07-14.205 20.603 4.969 11.364-.369 8.536-4.6h14.21l-1.423 15.258 9.239 4.969s-7.816 3.196-6.763 3.565c1.072.351 6.394 5.671 6.394 5.671l-9.942 17.752 9.239 5.338 11.716-9.938-.352-20.245 5.322-9.236h9.239l11.364 11.009-5.322 9.236-7.465 16.329 9.959 10.307 4.62-15.276s6.745 2.845 7.816 1.774c1.054-1.071 2.828-16.33 2.828-16.33l6.762-6.04 7.096-1.071 1.879-3.863 18.25 6.497v11.413l-31.546 65.985-10.38 41.122v31.131H167.88l-11.891 14.03h-9.432l-28.437 16.136-30.246 15.03-23.905 6.76-3.109-.93-13.98-25.039 13.506-9.236 12.787 9.236 8.519-11.711-15.615-9.956-.72-13.134s15.983-11.712 15.983-12.783c0-1.071-2.476-24.143-2.476-24.143l-6.394-3.915-6.042 7.111-48.67-21.667z" fill="#E6E6E6"/><path d="M140 191.452C140 199.98 130 206 130 206s-10-6.02-10-14.548c0-5.218 4.477-9.452 10-9.452s10 4.234 10 9.452z" stroke="#fff" stroke-width="1.18" stroke-linecap="round" stroke-linejoin="round"/><path d="M130 193a3 3 0 100-6 3 3 0 000 6z" stroke="#fff" stroke-width="1.18" stroke-linecap="round" stroke-linejoin="round"/><path d="M160.046 297.249l.51-.597v17.646l10.24 6.62v19.683l6.481-5.636 15.913 22.282-1.229 15.68-28.56 5.601 8.694 13.151-6.428 7.34h-5.34l-2.353-10.272-8.115 3.547v-.58l-6.007-9.991-3.935 4.917a288.402 288.402 0 00-3.916 4.899 870.85 870.85 0 01-4.62-6.725l3.144-12.414-11.469-11.343-7.272-18.911-11.54-7.515-7.886-9.464 25.784-12.765 26.733-15.153h11.171z" fill="#336ABB"/><path d="M268.84 264.906l5.919-.544 5.778 39.612-93.477 10.834-7.482 6.514v-5.162l-10.24-6.638V286.31l2.617-3.09h35.269v-1.668l25.697-12.484 35.919-4.162zM132.927 536.888l-5.041 1.475-7.816-15.276-32.688-3.915-8.167-12.783v-29.112l-22.377-5.689-7.816-10.465h12.436l5.322-6.936 7.464-2.844-8.887-17.278s11.013 1.194 11.013 0-9.59-34.924-9.59-34.924l-12.436-2.827-13.858-38.716 14.578 1.773-1.791-13.836-12.787-1.071-3.548-11.36 14.947-1.194 12.014 3.634 24.01-6.795 10.434 12.519 10.257 6.69 6.938 18.015 9.239 9.148-2.881 11.361 1.107 1.633s2.301 3.371 4.619 6.742c5.849 8.446 6.464 9.324 9.714 8.323l3.108-.966v-1.984c.176-.246.387-.527.633-.843v6.304l10.696-4.671 1.564 6.778h11.434l9.467 21.878h-17.055l30.861 31.377 2.213 9.956-4.04 7.515-14.631 19.735 4.215 14.135-14.016 3.793-13.384 5.215-15.474 15.486z" fill="#E6E6E6"/><path d="M334.583 659.254l4.303.913-9.239.351-3.899 18.472-11.364-14.574-27.717 32.326-15.632 4.969v-19.174l33.39-29.481-1.054-11.009-20.603-32.677-63.231-8.165-13.859-52.201-56.487-6.392-7.974-1.597 12.102-12.098 10.995-4.32 22.465-6.093-5.515-18.541 12.19-16.47 6.094-11.203-3.477-15.609-17.934-18.226h9.468l-14.807-34.239 10.328-11.8-5.164-7.796 22.236-4.354 1.985-25.513-18.249-25.583 6.85-5.952 90.368-10.465v24.6h-5.866l-32.283 28.69 56.627 15.944v18.454l-9.046 8.428 7.799 7.778-12.032 18.279 13.788 11.571 6.675 24.634h1.282l-17.687 20.246 4.443 35.45-49.303 5.953-35.146-17.928 29.965 39.999v11.852l19.76 12.379h17.037l31.879 21.456 23.818 17.84h10.275l-8.554 40.876zM267.926 256.18l-37.5 4.337-23.202 11.29V244.38l9.713-38.822 32.213-67.372v-19.595l-22.939-8.165 10.363-.334 2.494-20.596 9.59-7.462h9.942l19.9-26.637h14.21l1.51 2.072-7.201 14.416V81.91l-9.836 6.496h-9.713v20.017l-10.644 6.392V205.4l6.621 19.402 21.376-7.374 7.483 6.18h17.845l-4.198 5.092.913 7.726-5.181 4.899 5.726 11.185-39.485 3.67z" fill="#E6E6E6"/><path d="M279.817 97.187l15.984-10.553V73.957l4.25-8.499 2.249 3.073 4.619-6.04-1.423-12.414s21.675-14.574 22.026-15.627c.351-1.071 1.071-19.894 1.071-19.894L341.38 0l1.423 17.05 15.632 3.195.703 9.938 23.097 6.743-3.197 9.235-5.339 7.814.351 42.615 12.435-9.587 19.901 8.884s37.289-32.676 38.712-32.676c1.422 0 21.323-2.493 21.323-2.493v12.431l-47.248 28.761-.72 13.151-7.096 1.774-5.322-8.165-13.156 8.516 17.775 17.4-20.972 32.677.334.298-17.16 18.349-23.8 21.825-11.733-2.352-18.882 9.446h-22.974l-8.852-7.304-17.705 6.11-3.302-9.692v-84.158l10.644-6.392V97.187h3.565z" fill="#E6E6E6"/><path d="M557 421.88l-4.971 20.947-16.703 20.596-9.222-8.516-7.816 8.516 2.828 19.894-5.322 6.391h-11.715l-9.59-22.369-4.989 5.671-12.418-13.485-7.465 11.361-5.339-10.307-5.146 1.422-9.766-8.165-14.561 15.627 20.252 20.245h-17.055l-.352 6.041s32.319 34.432 33.39 33.73c1.054-.72 13.858.017 13.858.017l7.799 12.414 15.281 6.743-3.197 10.658h-11.715l-5.34-11.361-2.125 11.361h-5.691l-5.673-17.05-10.662.351-.351 25.566 10.662 48.303 1.053 30.535-15.807 18.12v17.401l-21.482 25.916L404.612 712l-65.726-30.183 4.268-7.094-4.268-14.556 4.303.896 10.75-51.465h-18.144l-21.569-16.153-34.391-23.143h-17.178l-13.507-8.445v-9.939l-9.063-12.08 3.864 1.967 60.702-7.322-5.041-40.297 27.805-31.834h-13.876l-5.638-20.807-9.907-8.322 11.663-17.717-6.428-6.426 5.181-4.829V375.35l-47.582-13.398 17.793-15.82h11.311v-34.397l.615-.07-7.043-48.128 37.605-3.495-8.606-16.856 3.583-3.406-.984-8.376 7.149-8.656h.017l16.282-8.165 13.139 2.634 27.224-24.951 17.67-18.893 14.772 13.064-34.462 25.916-8.167-2.124v20.596h7.816v35.503l-3.917 6.392-11.364-7.445v7.445l7.641 6.76 21.85 22.369h13.489l30.913 49.709 18.478 64.984h28.05l14.93 26.285 11.364-17.752v-15.276l-3.899-19.525 8.518-11.36 19.532 14.205 17.055.702L557 421.88z" fill="#E6E6E6"/></g><defs><filter id="filter0_d_1210_839" x="-4" y="0" width="565" height="720" filterUnits="userSpaceOnUse" color-interpolation-filters="sRGB"><feFlood flood-opacity="0" result="BackgroundImageFix"/><feColorMatrix in="SourceAlpha" values="0 0 0 0 0 0 0 0 0 0 0 0 0 0 0 0 0 0 127 0" result="hardAlpha"/><feOffset dy="4"/><feGaussianBlur stdDeviation="2"/><feComposite in2="hardAlpha" operator="out"/><feColorMatrix values="0 0 0 0 0 0 0 0 0 0 0 0 0 0 0 0 0 0 0.25 0"/><feBlend in2="BackgroundImageFix" result="effect1_dropShadow_1210_839"/><feBlend in="SourceGraphic" in2="effect1_dropShadow_1210_839" result="shape"/></filter></defs></svg>

<svg width="557" height="712" viewBox="0 0 557 712" fill="none" xmlns="http://www.w3.org/2000/svg">
<g filter="url(#filter0_d_1210_839)">
<path d="M17.7575 210.229V199.922H9.23884L0 177.903L17.4062 170.81C17.4062 170.81 21.6568 181.099 23.7997 181.099C25.9425 181.099 57.5407 170.81 57.5407 170.81L65.0056 148.089H83.4833L86.68 120.382L96.2701 113.288L95.1987 99.083L115.802 104.052L127.166 103.683L135.702 99.083H149.912L148.489 114.341L157.728 119.31C157.728 119.31 149.912 122.506 150.965 122.875C152.037 123.226 157.359 128.546 157.359 128.546L147.417 146.298L156.656 151.636L168.372 141.698L168.02 121.453L173.342 112.217H182.581L193.945 123.226L188.623 132.462L181.158 148.791L191.117 159.098L195.737 143.822C195.737 143.822 202.482 146.667 203.553 145.596C204.607 144.525 206.381 129.266 206.381 129.266L213.143 123.226L220.239 122.155L222.118 118.292L240.368 124.789V136.202L208.822 202.187L198.442 243.309V274.44H167.88L155.989 288.47H146.557L118.12 304.606L87.8743 319.636L63.9693 326.396L60.8604 325.466L46.8792 300.427L60.3862 291.191L73.173 300.427L81.6917 288.716L66.077 278.76L65.3569 265.626C65.3569 265.626 81.3404 253.914 81.3404 252.843C81.3404 251.772 78.8638 228.7 78.8638 228.7L72.4704 224.785L66.4283 231.896L17.7575 210.229Z" fill="#E6E6E6"/>
<path d="M140 191.452C140 199.98 130 206 130 206C130 206 120 199.98 120 191.452C120 186.234 124.477 182 130 182C135.523 182 140 186.234 140 191.452Z" stroke="white" stroke-width="1.18038" stroke-linecap="round" stroke-linejoin="round"/>
<path d="M130 193C131.657 193 133 191.657 133 190C133 188.343 131.657 187 130 187C128.343 187 127 188.343 127 190C127 191.657 128.343 193 130 193Z" stroke="white" stroke-width="1.18038" stroke-linecap="round" stroke-linejoin="round"/>
<path d="M160.046 297.249L160.556 296.652V314.298L170.796 320.918V340.601L177.277 334.965L193.19 357.247L191.961 372.927L163.401 378.528L172.095 391.679L165.667 399.019H160.327L157.974 388.747L149.859 392.294V391.714L143.852 381.723L139.917 386.64C138.319 388.606 137.037 390.204 136.001 391.539C134.631 389.572 132.997 387.184 131.381 384.814L134.525 372.4L123.056 361.057L115.784 342.146L104.244 334.631L96.3579 325.167L122.142 312.402L148.875 297.249H160.046Z" fill="#336ABB"/>
<path d="M268.84 264.906L274.759 264.362L280.537 303.974L187.06 314.808L179.578 321.322V316.16L169.338 309.522V286.31L171.955 283.22H207.224V281.552L232.921 269.068L268.84 264.906Z" fill="#E6E6E6"/>
<path d="M132.927 536.888L127.886 538.363L120.07 523.087L87.3825 519.172L79.2151 506.389V477.277L56.8382 471.588L49.022 461.123H61.4576L66.7796 454.187L74.2444 451.343L65.3569 434.065C65.3569 434.065 76.3697 435.259 76.3697 434.065C76.3697 432.871 66.7796 399.141 66.7796 399.141L54.344 396.314L40.4858 357.598L55.0642 359.371L53.2726 345.535L40.4858 344.464L36.9378 333.104L51.885 331.91L63.899 335.544L87.9095 328.749L98.3427 341.268L108.6 347.958L115.538 365.973L124.777 375.121L121.896 386.482L123.003 388.115C123.003 388.115 125.304 391.486 127.622 394.857C133.471 403.303 134.086 404.181 137.336 403.18L140.444 402.214V400.23C140.62 399.984 140.831 399.703 141.077 399.387V405.691L151.773 401.02L153.337 407.798H164.771L174.238 429.676H157.183L188.044 461.053L190.257 471.009L186.217 478.524L171.586 498.259L175.801 512.394L161.785 516.187L148.401 521.402L132.927 536.888Z" fill="#E6E6E6"/>
<path d="M334.583 659.254L338.886 660.167L329.647 660.518L325.748 678.99L314.384 664.416L286.667 696.742L271.035 701.711V682.537L304.425 653.056L303.371 642.047L282.768 609.37L219.537 601.205L205.678 549.004L149.191 542.612L141.217 541.015L153.319 528.917L164.314 524.597L186.779 518.504L181.264 499.963L193.454 483.493L199.548 472.29L196.071 456.681L178.137 438.455H187.605L172.798 404.216L183.126 392.416L177.962 384.62L200.198 380.266L202.183 354.753L183.934 329.17L190.784 323.218L281.152 312.753V337.353H275.286L243.003 366.043L299.63 381.987V400.441L290.584 408.869L298.383 416.647L286.351 434.926L300.139 446.497L306.814 471.131H308.096L290.409 491.377L294.852 526.827L245.549 532.78L210.403 514.852L240.368 554.851V566.703L260.128 579.082H277.165L309.044 600.538L332.862 618.378H343.137L334.583 659.254Z" fill="#E6E6E6"/>
<path d="M267.926 256.18L230.426 260.517L207.224 271.807V244.38L216.937 205.558L249.15 138.186V118.591L226.211 110.426L236.574 110.092L239.068 89.4961L248.658 82.0337H258.6L278.5 55.3973H292.71L294.22 57.4693L287.019 71.8848V81.9108L277.183 88.4074H267.47V108.424L256.826 114.816V205.4L263.447 224.802L284.823 217.428L292.306 223.608H310.151L305.953 228.7L306.866 236.426L301.685 241.325L307.411 252.51L267.926 256.18Z" fill="#E6E6E6"/>
<path d="M279.817 97.1867L295.801 86.634V73.9567L300.051 65.4583L302.3 68.5311L306.919 62.491L305.496 50.077C305.496 50.077 327.171 35.5034 327.522 34.4499C327.873 33.3788 328.593 14.5561 328.593 14.5561L341.38 0L342.803 17.0494L358.435 20.245L359.138 30.1832L382.235 36.9257L379.038 46.1615L373.699 53.975L374.05 96.5897L386.485 87.0027L406.386 95.8874C406.386 95.8874 443.675 63.2109 445.098 63.2109C446.52 63.2109 466.421 60.7175 466.421 60.7175V73.149L419.173 101.91L418.453 115.061L411.357 116.835L406.035 108.67L392.879 117.186L410.654 134.586L389.682 167.263L390.016 167.561L372.856 185.91L349.056 207.735L337.323 205.383L318.441 214.829H295.467L286.615 207.525L268.91 213.635L265.608 203.943V119.785L276.252 113.393V97.1867H279.817Z" fill="#E6E6E6"/>
<path d="M557 421.88L552.029 442.827L535.326 463.423L526.104 454.907L518.288 463.423L521.116 483.317L515.794 489.708H504.079L494.489 467.339L489.5 473.01L477.082 459.525L469.617 470.886L464.278 460.579L459.132 462.001L449.366 453.836L434.805 469.463L455.057 489.708H438.002L437.65 495.749C437.65 495.749 469.969 530.181 471.04 529.479C472.094 528.759 484.898 529.496 484.898 529.496L492.697 541.91L507.978 548.653L504.781 559.311H493.066L487.726 547.95L485.601 559.311H479.91L474.237 542.261L463.575 542.612L463.224 568.178L473.886 616.481L474.939 647.016L459.132 665.136V682.537L437.65 708.453L404.612 712L338.886 681.817L343.154 674.723L338.886 660.167L343.189 661.063L353.939 609.598H335.795L314.226 593.445L279.835 570.302H262.657L249.15 561.857V551.918L240.087 539.838L243.951 541.805L304.653 534.483L299.612 494.186L327.417 462.352H313.541L307.903 441.545L297.996 433.223L309.659 415.506L303.231 409.08L308.412 404.251V375.35L260.83 361.952L278.623 346.132H289.934V311.735L290.549 311.665L283.506 263.537L321.111 260.042L312.505 243.186L316.088 239.78L315.104 231.404L322.253 222.748H322.27L338.552 214.583L351.691 217.217L378.915 192.266L396.585 173.373L411.357 186.437L376.895 212.353L368.728 210.229V230.825H376.544V266.328L372.627 272.72L361.263 265.275V272.72L368.904 279.48L390.754 301.849H404.243L435.156 351.558L453.634 416.542H481.684L496.614 442.827L507.978 425.075V409.799L504.079 390.274L512.597 378.914L532.129 393.119L549.184 393.821L557 421.88Z" fill="#E6E6E6"/>

</g>
<defs>
<filter id="filter0_d_1210_839" x="-4" y="0" width="565" height="720" filterUnits="userSpaceOnUse" color-interpolation-filters="sRGB">
<feFlood flood-opacity="0" result="BackgroundImageFix"/>
<feColorMatrix in="SourceAlpha" type="matrix" values="0 0 0 0 0 0 0 0 0 0 0 0 0 0 0 0 0 0 127 0" result="hardAlpha"/>
<feOffset dy="4"/>
<feGaussianBlur stdDeviation="2"/>
<feComposite in2="hardAlpha" operator="out"/>
<feColorMatrix type="matrix" values="0 0 0 0 0 0 0 0 0 0 0 0 0 0 0 0 0 0 0.25 0"/>
<feBlend mode="normal" in2="BackgroundImageFix" result="effect1_dropShadow_1210_839"/>
<feBlend mode="normal" in="SourceGraphic" in2="effect1_dropShadow_1210_839" result="shape"/>
</filter>
</defs>
</svg>
